**harm	**harte	**timestamp	**phrase	**leadinstrument	**kern
*M4/4	*M4/4	*	*	*	*
*G:	*G:	*	*	*	*G:
1r;	N	0	.	r	1r;
=1	=1	=1	=1	=1	=1
*>A_intro	*>A_intro	*>A_intro	*>A_intro	*>A_intro	*>A_intro
1I	G:maj	0.441	newline	guitar	1G 1b 1dd
=2	=2	=2	=2	=2	=2
2Im7	G:7	1.706	.	guitar	2G 2b 2dd 2ff#
2I	G:maj6	2.338	.	guitar	2G 2b 2dd
=3	=3	=3	=3	=3	=3
1V	D:sus4(b7)	2.971	.	guitar	1D 1f# 1a
=4	=4	=4	=4	=4	=4
2v7	D:min7	4.235	.	guitar	2D 2f 2a 2cc
2V	D:sus2(b7)	4.868	.	guitar	2D 2f# 2a
=5	=5	=5	=5	=5	=5
1V	D:maj	5.5	newline	guitar	1D 1f# 1a
=6	=6	=6	=6	=6	=6
2Ve	D:maj/2	6.747	.	guitar	2D 2f# 2a
2V7b	D:7/3	7.37	.	guitar	2d 2F# 2a 2cc
=7	=7	=7	=7	=7	=7
1I	G:maj	7.994	.	guitar	1G 1b 1dd
=8	=8	=8	=8	=8	=8
1I	G:maj	9.24	.	guitar	1G 1b 1dd
=9	=9	=9	=9	=9	=9
*>B_verse	*>B_verse	*>B_verse	*>B_verse	*>B_verse	*>B_verse
1I	G:maj	10.487	newline	voice	1G 1b 1dd
=10	=10	=10	=10	=10	=10
1I	G:maj	11.713	.	voice	1G 1b 1dd
=11	=11	=11	=11	=11	=11
1I	G:maj	12.938	.	voice	1G 1b 1dd
=12	=12	=12	=12	=12	=12
1I	G:maj	14.164	.	voice	1G 1b 1dd
=13	=13	=13	=13	=13	=13
1I	G:maj	15.39	newline	voice	1G 1b 1dd
=14	=14	=14	=14	=14	=14
1I	G:maj	16.631	.	voice	1G 1b 1dd
=15	=15	=15	=15	=15	=15
1V7	D:7(#9)	17.873	.	voice	1D 1f# 1a 1cc
=16	=16	=16	=16	=16	=16
1V7	D:7(#9)	19.114	.	voice	1D 1f# 1a 1cc
=17	=17	=17	=17	=17	=17
1vi	E:min	20.356	newline	voice	1E 1g 1b
=18	=18	=18	=18	=18	=18
1III	B:maj	21.612	.	voice	1B 1dd# 1ff#
=19	=19	=19	=19	=19	=19
1ii	A:min	22.867	.	voice	1A 1cc 1ee
=20	=20	=20	=20	=20	=20
1V	D:maj	24.123	.	voice	1D 1f# 1a
=21	=21	=21	=21	=21	=21
1I	G:maj	25.379	newline	voice	1G 1b 1dd
=22	=22	=22	=22	=22	=22
1-VII	F:maj	26.608	.	voice	1F 1a 1cc
=23	=23	=23	=23	=23	=23
1I	G:maj	27.836	.	voice	1G 1b 1dd
=24	=24	=24	=24	=24	=24
1I	G:maj	29.065	.	voice	1G 1b 1dd
=25	=25	=25	=25	=25	=25
*>B_verse	*>B_verse	*>B_verse	*>B_verse	*>B_verse	*>B_verse
1I	G:maj	30.294	newline	voice	1G 1b 1dd
=26	=26	=26	=26	=26	=26
1I	G:maj	31.538	.	voice	1G 1b 1dd
=27	=27	=27	=27	=27	=27
1I	G:maj	32.782	.	voice	1G 1b 1dd
=28	=28	=28	=28	=28	=28
1I	G:maj	34.027	.	voice	1G 1b 1dd
=29	=29	=29	=29	=29	=29
1I	G:maj	35.271	newline	voice	1G 1b 1dd
=30	=30	=30	=30	=30	=30
1I	G:maj	36.514	.	voice	1G 1b 1dd
=31	=31	=31	=31	=31	=31
1V7	D:7(#9)	37.756	.	voice	1D 1f# 1a 1cc
=32	=32	=32	=32	=32	=32
1V7	D:7(#9)	38.998	.	voice	1D 1f# 1a 1cc
=33	=33	=33	=33	=33	=33
1vi	E:min	40.241	newline	voice	1E 1g 1b
=34	=34	=34	=34	=34	=34
1III	B:maj	41.477	.	voice	1B 1dd# 1ff#
=35	=35	=35	=35	=35	=35
1ii	A:min	42.713	.	voice	1A 1cc 1ee
=36	=36	=36	=36	=36	=36
1V	D:maj	43.95	.	voice	1D 1f# 1a
=37	=37	=37	=37	=37	=37
1I	G:maj	45.186	newline	voice	1G 1b 1dd
=38	=38	=38	=38	=38	=38
1-VII	F:maj	46.44	.	voice	1F 1a 1cc
=39	=39	=39	=39	=39	=39
1I	G:maj	47.694	.	voice	1G 1b 1dd
=40	=40	=40	=40	=40	=40
1I	G:maj	48.948	.	voice	1G 1b 1dd
=41	=41	=41	=41	=41	=41
*>C_chorus	*>C_chorus	*>C_chorus	*>C_chorus	*>C_chorus	*>C_chorus
1I	G:maj	50.203	newline	voice	1G 1b 1dd
=42	=42	=42	=42	=42	=42
1I	G:maj	51.421	.	voice	1G 1b 1dd
=43	=43	=43	=43	=43	=43
1vi	E:min	52.64	newline	voice	1E 1g 1b
=44	=44	=44	=44	=44	=44
1II	A:maj	53.894	.	voice	1A 1cc# 1ee
=45	=45	=45	=45	=45	=45
1IV	C:maj	55.147	.	voice	1C 1e 1g
=46	=46	=46	=46	=46	=46
1V	D:maj	56.401	.	voice	1D 1f# 1a
=47	=47	=47	=47	=47	=47
1I	G:maj	57.655	newline	voice	1G 1b 1dd
=48	=48	=48	=48	=48	=48
1I	G:maj	58.924	.	voice	1G 1b 1dd
=49	=49	=49	=49	=49	=49
1vi	E:min	60.193	newline	voice	1E 1g 1b
=50	=50	=50	=50	=50	=50
1II	A:maj	61.422	.	voice	1A 1cc# 1ee
=51	=51	=51	=51	=51	=51
1IV	C:maj	62.651	.	voice	1C 1e 1g
=52	=52	=52	=52	=52	=52
1V	D:maj	63.88	.	voice	1D 1f# 1a
=53	=53	=53	=53	=53	=53
*>B_verse	*>B_verse	*>B_verse	*>B_verse	*>B_verse	*>B_verse
1I	G:maj	65.109	newline	voice	1G 1b 1dd
=54	=54	=54	=54	=54	=54
1I	G:maj	66.368	.	voice	1G 1b 1dd
=55	=55	=55	=55	=55	=55
1I	G:maj	67.628	.	voice	1G 1b 1dd
=56	=56	=56	=56	=56	=56
1I	G:maj	68.888	.	voice	1G 1b 1dd
=57	=57	=57	=57	=57	=57
1I	G:maj	70.147	newline	voice	1G 1b 1dd
=58	=58	=58	=58	=58	=58
1I	G:maj	71.437	.	voice	1G 1b 1dd
=59	=59	=59	=59	=59	=59
1V7	D:7(#9)	72.727	.	voice	1D 1f# 1a 1cc
=60	=60	=60	=60	=60	=60
1V7	D:7(#9)	74.016	.	voice	1D 1f# 1a 1cc
=61	=61	=61	=61	=61	=61
1vi	E:min	75.306	newline	voice	1E 1g 1b
=62	=62	=62	=62	=62	=62
1III	B:maj	76.56	.	voice	1B 1dd# 1ff#
=63	=63	=63	=63	=63	=63
1ii	A:min	77.814	.	voice	1A 1cc 1ee
=64	=64	=64	=64	=64	=64
1V	D:maj	79.068	.	voice	1D 1f# 1a
=65	=65	=65	=65	=65	=65
1I	G:maj	80.322	newline	voice	1G 1b 1dd
=66	=66	=66	=66	=66	=66
1-VII	F:maj	81.571	.	voice	1F 1a 1cc
=67	=67	=67	=67	=67	=67
1I	G:maj	82.82	.	voice	1G 1b 1dd
=68	=68	=68	=68	=68	=68
1I	G:maj	84.07	.	voice	1G 1b 1dd
=69	=69	=69	=69	=69	=69
*>B_solo	*>B_solo	*>B_solo	*>B_solo	*>B_solo	*>B_solo
1I	G:maj	85.319	newline	guitar	1G 1b 1dd
=70	=70	=70	=70	=70	=70
1I	G:maj	86.568	.	guitar	1G 1b 1dd
=71	=71	=71	=71	=71	=71
1I	G:maj	87.817	.	guitar	1G 1b 1dd
=72	=72	=72	=72	=72	=72
1I	G:maj	89.066	.	guitar	1G 1b 1dd
=73	=73	=73	=73	=73	=73
1I	G:maj	90.315	newline	guitar	1G 1b 1dd
=74	=74	=74	=74	=74	=74
1I	G:maj	91.605	.	guitar	1G 1b 1dd
=75	=75	=75	=75	=75	=75
1V7	D:7(#9)	92.894	.	guitar	1D 1f# 1a 1cc
=76	=76	=76	=76	=76	=76
1V7	D:7(#9)	94.184	.	guitar	1D 1f# 1a 1cc
=77	=77	=77	=77	=77	=77
1vi	E:min	95.474	newline	guitar	1E 1g 1b
=78	=78	=78	=78	=78	=78
1III	B:maj	96.738	.	guitar	1B 1dd# 1ff#
=79	=79	=79	=79	=79	=79
1ii	A:min	98.003	.	guitar	1A 1cc 1ee
=80	=80	=80	=80	=80	=80
1V	D:maj	99.267	.	guitar	1D 1f# 1a
=81	=81	=81	=81	=81	=81
1I	G:maj	100.532	newline	guitar	1G 1b 1dd
=82	=82	=82	=82	=82	=82
1-VII	F:maj	101.806	.	guitar	1F 1a 1cc
=83	=83	=83	=83	=83	=83
1I	G:maj	103.081	.	guitar	1G 1b 1dd
=84	=84	=84	=84	=84	=84
1I	G:maj	104.355	.	guitar	1G 1b 1dd
=85	=85	=85	=85	=85	=85
*>C_chorus	*>C_chorus	*>C_chorus	*>C_chorus	*>C_chorus	*>C_chorus
1I	G:maj	105.629	newline	voice	1G 1b 1dd
=86	=86	=86	=86	=86	=86
1I	G:maj	106.826	.	voice	1G 1b 1dd
=87	=87	=87	=87	=87	=87
1vi	E:min	108.024	newline	voice	1E 1g 1b
=88	=88	=88	=88	=88	=88
1II	A:maj	109.323	.	voice	1A 1cc# 1ee
=89	=89	=89	=89	=89	=89
1IV	C:maj	110.622	.	voice	1C 1e 1g
=90	=90	=90	=90	=90	=90
1V	D:maj	111.922	.	voice	1D 1f# 1a
=91	=91	=91	=91	=91	=91
1I	G:maj	113.221	newline	voice	1G 1b 1dd
=92	=92	=92	=92	=92	=92
1I	G:maj	114.465	.	voice	1G 1b 1dd
=93	=93	=93	=93	=93	=93
1vi	E:min	115.708	newline	voice	1E 1g 1b
=94	=94	=94	=94	=94	=94
1II	A:maj	116.971	.	voice	1A 1cc# 1ee
=95	=95	=95	=95	=95	=95
1IV	C:maj	118.234	.	voice	1C 1e 1g
=96	=96	=96	=96	=96	=96
1V	D:maj	119.497	.	voice	1D 1f# 1a
=97	=97	=97	=97	=97	=97
*>B_verse	*>B_verse	*>B_verse	*>B_verse	*>B_verse	*>B_verse
1I	G:maj	120.76	newline	voice	1G 1b 1dd
=98	=98	=98	=98	=98	=98
1I	G:maj	122.023	.	voice	1G 1b 1dd
=99	=99	=99	=99	=99	=99
1I	G:maj	123.286	.	voice	1G 1b 1dd
=100	=100	=100	=100	=100	=100
1I	G:maj	124.548	.	voice	1G 1b 1dd
=101	=101	=101	=101	=101	=101
1I	G:maj	125.811	newline	voice	1G 1b 1dd
=102	=102	=102	=102	=102	=102
1I	G:maj	127.085	.	voice	1G 1b 1dd
=103	=103	=103	=103	=103	=103
1V7	D:7(#9)	128.36	.	voice	1D 1f# 1a 1cc
=104	=104	=104	=104	=104	=104
1V7	D:7(#9)	129.634	.	voice	1D 1f# 1a 1cc
=105	=105	=105	=105	=105	=105
1vi	E:min	130.909	newline	voice	1E 1g 1b
=106	=106	=106	=106	=106	=106
1III	B:maj	132.162	.	voice	1B 1dd# 1ff#
=107	=107	=107	=107	=107	=107
1ii	A:min	133.415	.	voice	1A 1cc 1ee
=108	=108	=108	=108	=108	=108
1V	D:maj	134.668	.	voice	1D 1f# 1a
=109	=109	=109	=109	=109	=109
1I	G:maj	135.922	newline	voice	1G 1b 1dd
=110	=110	=110	=110	=110	=110
1-VII	F:maj	137.188	.	voice	1F 1a 1cc
=111	=111	=111	=111	=111	=111
1I	G:maj	138.454	.	voice	1G 1b 1dd
=112	=112	=112	=112	=112	=112
1I	G:maj	139.72	.	voice	1G 1b 1dd
=113	=113	=113	=113	=113	=113
*>A_outro	*>A_outro	*>A_outro	*>A_outro	*>A_outro	*>A_outro
1I	G:maj	140.986	newline	guitar	1G 1b 1dd
=114	=114	=114	=114	=114	=114
2Im7	G:7	142.253	.	guitar	2G 2b 2dd 2ff#
2I	G:maj6	142.887	.	guitar	2G 2b 2dd
=115	=115	=115	=115	=115	=115
1V	D:sus4(b7)	143.52	.	guitar	1D 1f# 1a
=116	=116	=116	=116	=116	=116
2v7	D:min7	144.788	.	guitar	2D 2f 2a 2cc
2V	D:sus2(b7)	145.421	.	guitar	2D 2f# 2a
=117	=117	=117	=117	=117	=117
1V	D:maj	146.055	newline	guitar	1D 1f# 1a
=118	=118	=118	=118	=118	=118
2Ve	D:maj/2	147.328	.	guitar	2D 2f# 2a
2V7b	D:7/3	147.964	.	guitar	2d 2F# 2a 2cc
=119	=119	=119	=119	=119	=119
1I	G:maj	148.601	.	guitar	1G 1b 1dd
1r;	N	151.465	.	r	1r;
1r;	N	156.16	.	r	1r;
*-	*-	*-	*-	*-	*-
!!!OTL: I Don't Want To Spoil The Party
!!!COC: The Beatles
!!!BillboardChartDate: 1965/03/20
!!!BillboardPeak: 39
!!!BillboardWeeksOnChart: 6
!!!SampleTargetRank: 40
!!!SampleActualRank: 39
!!!SampleID#: 1213
!!!RDF**harmony: **recip + pitch class of root + harmonic quality
!!!RDF**harte: Chris Harte's syntax, used by MIREX
!!!RDF**phrase: newline = linebreak in original McGill transcription
!!!RDF**timestamp: McGill audio timestamp in seconds
!!!RDF**leadinstrument: original McGill primary instrumentation annotation
!!!RDT: 2017/01/12/
!!!ENC: Nathaniel Condit-Schultz
!!!EST: Awating manual error checking and editing.
